icons/upload.svg

<svg width="24" height="24" viewBox="0 0 24 24" fill="none" xmlns="http://www.w3.org/2000/svg">
<path fill-rule="evenodd" clip-rule="evenodd" d="M11.2929 3.29289C11.6834 2.90237 12.3166 2.90237 12.7071 3.29289L16.7071 7.29289C17.0976 7.68342 17.0976 8.31658 16.7071 8.70711C16.3166 9.09763 15.6834 9.09763 15.2929 8.70711L13 6.41421V15C13 15.5523 12.5523 16 12 16C11.4477 16 11 15.5523 11 15V6.41421L8.70711 8.70711C8.31658 9.09763 7.68342 9.09763 7.29289 8.70711C6.90237 8.31658 6.90237 7.68342 7.29289 7.29289L11.2929 3.29289ZM3 12C3.55228 12 4 12.4477 4 13V19H20V13C20 12.4477 20.4477 12 21 12C21.5523 12 22 12.4477 22 13V20C22 20.5523 21.5523 21 21 21H3C2.44772 21 2 20.5523 2 20V13C2 12.4477 2.44772 12 3 12Z" fill="black"/>
</svg>

<svg
  width="24"
  height="24"
  viewBox="0 0 24 24"
  xmlns="http://www.w3.org/2000/svg"
>
  <path
    fill-rule="evenodd"
    clip-rule="evenodd"
    d="M11.293 3.293a1 1 0 0 1 1.414 0l4 4a1 1 0 0 1-1.414 1.414L13 6.414V15a1 1 0 1 1-2 0V6.414L8.707 8.707a1 1 0 0 1-1.414-1.414l4-4zM3 12a1 1 0 0 1 1 1v6h16v-6a1 1 0 1 1 2 0v7a1 1 0 0 1-1 1H3a1 1 0 0 1-1-1v-7a1 1 0 0 1 1-1z"
  />
</svg>
